assets/icons/microphone/high.svg

<?xml version="1.0" encoding="UTF-8" standalone="no"?>
<svg viewBox="0 0 24 24" height="24" width="24" version="1.1" id="svg10" sodipodi:docname="high.svg" inkscape:version="1.1 (ce6663b3b7, 2021-05-25)"
   xmlns:inkscape="http://www.inkscape.org/namespaces/inkscape"
   xmlns:sodipodi="http://sodipodi.sourceforge.net/DTD/sodipodi-0.dtd"
   xmlns="http://www.w3.org/2000/svg"
   xmlns:svg="http://www.w3.org/2000/svg">
   <defs id="defs14" />
   <sodipodi:namedview id="namedview12" pagecolor="#ffffff" bordercolor="#666666" borderopacity="1.0" inkscape:pageshadow="2" inkscape:pageopacity="0.0" inkscape:pagecheckerboard="0" showgrid="true" width="24px" inkscape:zoom="22.627417" inkscape:cx="19.997864" inkscape:cy="17.346213" inkscape:window-width="1920" inkscape:window-height="1016" inkscape:window-x="0" inkscape:window-y="27" inkscape:window-maximized="1" inkscape:current-layer="svg10" inkscape:snap-grids="true">
      <inkscape:grid type="xygrid" id="grid831" />
   </sodipodi:namedview>
   <path id="rect864" style="fill:#808080;fill-opacity:1;fill-rule:evenodd;stroke-width:0.5;stroke-linecap:round;stroke-linejoin:round" d="m 7.5,2 c -1.939,0 -3.5,1.561 -3.5,3.5 v 7 c 0,1.939 1.561,3.5 3.5,3.5 1.939,0 3.5,-1.561 3.5,-3.5 v -7 c 0,-1.939 -1.561,-3.5 -3.5,-3.5 z m 0,1 a 2.5,2.5 0 0 1 2.5,2.5 v 7 a 2.5,2.5 0 0 1 -2.5,2.5 2.5,2.5 0 0 1 -2.5,-2.5 v -7 a 2.5,2.5 0 0 1 2.5,-2.5 z m -5.5,8 v 1.5 a 5.5,5.5 0 0 0 5,5.466797 v 3.044922 c -1.744098,0.07151 -3,0.488281 -3,0.488281 v 0.5 h 7 v -0.5 c 0,0 -1.255902,-0.416771 -3,-0.488281 v -3.044922 a 5.5,5.5 0 0 0 5,-5.466797 v -1.5 h -1 v 1.5 a 4.5,4.5 0 0 1 -4,4.464844 v -0.464844 h -1 v 0.464844 a 4.5,4.5 0 0 1 -4,-4.464844 v -1.5 z" />
   <path id="path966" style="fill:#808080;fill-rule:evenodd;stroke-width:0.5;stroke-linecap:round;stroke-linejoin:round" d="M 18.646484 5.6582031 A 9 9 0 0 0 16 12 A 9 9 0 0 0 18.783203 18.474609 L 19.492188 17.767578 A 8 8 0 0 1 17 12 A 8 8 0 0 1 19.337891 6.3496094 L 18.646484 5.6582031 z " />
   <path id="path2102" style="fill:#808080;fill-opacity:1;fill-rule:evenodd;stroke-width:0.5;stroke-linecap:round;stroke-linejoin:round" d="M 21.011719 8.0117188 A 5 5 0 0 0 19 12 A 5 5 0 0 0 21.011719 15.988281 L 21.720703 15.279297 A 4 4 0 0 1 20 12 A 4 4 0 0 1 21.720703 8.7207031 L 21.011719 8.0117188 z " />
</svg>

<svg height="24" width="24" xmlns="http://www.w3.org/2000/svg"><path style="fill:gray;fill-opacity:1;stroke-width:.5;stroke-linecap:round;stroke-linejoin:round" d="M7.5 2A3.492 3.492 0 0 0 4 5.5v7C4 14.439 5.561 16 7.5 16s3.5-1.561 3.5-3.5v-7C11 3.561 9.439 2 7.5 2zm0 1A2.5 2.5 0 0 1 10 5.5v7A2.5 2.5 0 0 1 7.5 15 2.5 2.5 0 0 1 5 12.5v-7A2.5 2.5 0 0 1 7.5 3zM2 11v1.5a5.5 5.5 0 0 0 5 5.467v3.045c-1.744.071-3 .488-3 .488v.5h7v-.5s-1.256-.417-3-.488v-3.045a5.5 5.5 0 0 0 5-5.467V11h-1v1.5a4.5 4.5 0 0 1-4 4.465V16.5H7v.465A4.5 4.5 0 0 1 3 12.5V11z"/><path style="fill:gray;stroke-width:.5;stroke-linecap:round;stroke-linejoin:round" d="M18.646 5.658A9 9 0 0 0 16 12a9 9 0 0 0 2.783 6.475l.71-.707A8 8 0 0 1 17 12a8 8 0 0 1 2.338-5.65l-.692-.692z"/><path style="fill:gray;fill-opacity:1;stroke-width:.5;stroke-linecap:round;stroke-linejoin:round" d="M21.012 8.012A5 5 0 0 0 19 12a5 5 0 0 0 2.012 3.988l.709-.709A4 4 0 0 1 20 12a4 4 0 0 1 1.72-3.28l-.708-.708z"/></svg>
